img/ingridients-icons/grape.svg

<svg width="24" height="24" viewBox="0 0 24 24" fill="none" xmlns="http://www.w3.org/2000/svg">
<path d="M16.443 12.7139C18.6035 11.225 18.0963 7.51466 15.5084 6.80076C15.3252 6.7491 14.5973 6.77728 14.508 6.69274C14.3624 6.55184 14.2732 5.88022 14.1605 5.67356C13.8364 5.07708 13.3198 4.59802 12.7139 4.30683C11.4458 3.69626 9.91467 3.95928 8.97064 5.01603C8.05948 3.7855 6.47201 3.40976 5.10058 4.072C4.49001 4.36319 3.96398 4.83755 3.62582 5.41994C3.45205 5.72053 3.32524 6.0446 3.25479 6.38746C3.17494 6.79607 3.27827 7.1718 3.24539 7.57102C3.22191 7.84812 3.28766 7.79176 2.98708 7.90448C2.818 7.97023 2.65361 8.05008 2.49393 8.14401C2.14637 8.35536 1.84578 8.63247 1.60156 8.95654C1.13659 9.5765 0.897057 10.3608 0.92054 11.1358C0.929934 11.488 1.00038 11.8403 1.1225 12.1738C1.19295 12.3663 1.28688 12.5542 1.39021 12.7327C1.43717 12.8078 1.5452 12.9205 1.56868 12.9957C1.63913 13.2117 1.63913 13.0379 1.5358 13.2446C1.33854 13.6297 0.9769 13.9068 0.803123 14.3295C0.62465 14.7569 0.54011 15.2172 0.544806 15.6822C0.549503 16.119 0.63874 16.5511 0.80782 16.9503C0.887664 17.1428 1.01917 17.3072 1.10371 17.4951C1.17416 17.6501 1.23052 17.636 1.19295 17.7675C1.17416 17.8286 0.911147 18.0211 0.873574 18.0634C0.300579 18.6974 -0.00470432 19.5334 -7.64548e-06 20.3741C0.0140824 22.1918 1.50762 23.7135 3.34872 23.6195C4.17533 23.5773 4.97377 23.2109 5.54207 22.6051C5.62661 22.5158 5.85674 22.079 5.95537 22.0462C6.03522 22.0227 6.44383 22.234 6.52837 22.2575C6.96046 22.3702 7.41604 22.3843 7.85753 22.3045C8.67944 22.1589 9.43091 21.6892 9.91937 21.0129C10.0556 20.8297 10.1307 20.5996 10.2622 20.4211C10.2951 20.3788 10.3186 20.2004 10.3609 20.1769C10.3796 20.1675 10.6661 20.2614 10.7272 20.2708C11.2063 20.3648 11.7088 20.3413 12.1832 20.2098C12.681 20.0689 13.146 19.8059 13.5264 19.4536C13.6297 19.355 13.9444 18.8477 14.0571 18.8055C14.1839 18.7632 14.6113 18.9511 14.7616 18.9698C15.7573 19.0779 16.7671 18.6833 17.4528 17.9601C18.9323 16.382 18.4203 13.6391 16.443 12.7139C16.5699 12.6246 16.6967 12.5401 16.8235 12.4509C16.6967 12.5401 16.5699 12.6246 16.443 12.7139ZM13.8035 9.35106C13.9209 9.21485 14.0383 9.05517 14.1182 8.89548C14.1464 8.84851 14.1699 8.80155 14.1933 8.74988C14.3061 8.51975 14.4 8.28491 14.4564 8.03599C14.5362 7.69313 14.4657 7.64616 14.8039 7.61329C15.128 7.58511 15.5178 7.74479 15.7855 7.90448C16.3256 8.22855 16.6779 8.79215 16.8188 9.39802C16.955 9.9898 16.8939 10.6379 16.6121 11.1781C16.4618 11.4693 16.2458 11.7229 15.9828 11.9154C15.8935 11.9812 15.1092 12.3569 15.1092 12.2724C15.1092 12.2583 15.1092 12.2395 15.1092 12.2254C15.1139 12.1174 15.1092 12 15.0998 11.892C15.0998 11.8732 15.0951 11.8591 15.0951 11.8403C15.0951 11.8403 15.0951 11.8356 15.0951 11.8309C14.9965 10.8728 14.508 9.9945 13.7143 9.44029C13.7472 9.41681 13.7753 9.38393 13.8035 9.35106C13.8176 9.33697 13.7753 9.38393 13.8035 9.35106C13.9209 9.21485 13.7753 9.38393 13.8035 9.35106ZM13.7378 10.746C13.7472 10.7554 13.7519 10.7648 13.7565 10.7741C13.874 10.9385 13.9632 11.117 14.0383 11.3002C14.0477 11.3237 14.0524 11.3424 14.0618 11.3659C14.0665 11.3753 14.0665 11.3847 14.0712 11.3941C14.0759 11.4082 14.0806 11.4223 14.0853 11.4364C14.137 11.5867 14.1605 11.7464 14.1839 11.9013C14.1839 11.9248 14.1886 11.9436 14.1886 11.9671C14.1886 11.9765 14.1886 11.9906 14.1933 12C14.1933 12.0235 14.198 12.0422 14.198 12.0657C14.198 12.0704 14.198 12.0751 14.198 12.0798C14.2074 12.2818 14.2027 12.5213 14.137 12.7139C14.1323 12.7327 14.1323 12.7514 14.1276 12.7655C13.7941 13.5734 13.2775 14.292 12.371 14.4845C11.8074 14.6066 11.1264 14.5033 10.6567 14.1511C10.6192 14.1276 10.5816 14.0994 10.5487 14.0759C9.5859 13.3432 9.40743 12.0235 9.98042 10.9902C10.5722 9.91935 11.6524 9.60468 12.7702 9.98041C12.7937 9.9898 12.8172 10.0039 12.8407 10.0133C12.8642 10.0227 12.8877 10.0368 12.9111 10.0462C12.9158 10.0462 12.9205 10.0509 12.9252 10.0509C12.991 10.0837 13.0567 10.1213 13.1178 10.1636C13.1742 10.2012 13.2305 10.2387 13.2869 10.281C13.3385 10.3186 13.3855 10.3608 13.4325 10.4078C13.4419 10.4172 13.4513 10.4219 13.456 10.4313C13.5217 10.483 13.7143 10.7178 13.7378 10.746C13.7425 10.7554 13.7096 10.7084 13.7378 10.746ZM8.81565 11.2532C8.78747 11.3565 8.76398 11.4646 8.7452 11.5679C8.07827 11.5867 7.49119 11.2908 7.03091 10.8258C6.74441 10.5111 6.54715 10.126 6.45792 9.708C6.02113 8.56202 7.08257 7.1718 8.14872 6.90409C8.02661 8.07356 8.56672 9.27121 9.52954 9.95223C9.19608 10.328 8.95185 10.7788 8.81565 11.2579C8.83443 11.1922 8.85322 11.1264 8.87201 11.0559C8.85322 11.1264 8.83443 11.1875 8.81565 11.2532C8.78747 11.3565 8.95185 10.7695 8.81565 11.2532ZM9.49667 14.3436C8.96594 14.7194 8.48688 15.3017 8.30371 15.9358C8.22856 15.917 8.15342 15.8982 8.07827 15.87C7.86692 15.7996 7.63678 15.7855 7.41604 15.7808C7.3268 15.7808 7.23757 15.7808 7.14833 15.7855C7.07788 15.7996 7.01213 15.8043 6.94168 15.8043C6.88531 15.809 6.82895 15.8137 6.77729 15.8278C6.77259 15.8278 6.7679 15.8278 6.7679 15.8278C6.74441 15.8372 6.72093 15.8419 6.69745 15.8419C5.93189 15.4239 5.42465 14.5597 5.46692 13.6814V13.6767C5.46692 13.6532 5.46692 13.6297 5.47162 13.6062C5.47162 13.6015 5.47162 13.6015 5.47162 13.5968C5.47162 13.5781 5.47631 13.5593 5.47631 13.5452V13.5405C5.48101 13.4747 5.48571 13.3855 5.50449 13.3197C5.51858 13.2305 5.54207 13.1413 5.56555 13.0567C5.56555 13.052 5.56555 13.052 5.57025 13.0473C5.57025 13.0426 5.57494 13.0379 5.57494 13.0332C5.62191 12.8736 5.69236 12.7327 5.76281 12.5824C5.80038 12.5166 5.83796 12.4509 5.88492 12.3851C6.00704 12.1972 6.16203 12.0282 6.3405 11.8873C6.39216 11.8356 6.44383 11.7933 6.50958 11.7604C6.52837 11.7464 6.54715 11.7323 6.56594 11.7229C6.58003 11.7135 6.59412 11.7041 6.60821 11.6994C7.1859 12.2113 7.92328 12.4931 8.69353 12.4931H8.70762C8.72171 12.6716 8.7405 12.9299 8.82504 13.0943C8.83443 13.1272 8.84383 13.1601 8.85792 13.1976C8.85792 13.2023 8.86261 13.2023 8.86261 13.207C8.87201 13.2399 8.8861 13.2728 8.89549 13.3104C9.027 13.6861 9.23365 14.0383 9.49667 14.3436ZM9.33698 6.09626C9.33698 6.09157 9.34167 6.08687 9.34167 6.08217V6.07748C10.4595 4.02973 13.6016 4.94558 13.6297 7.21407C13.6297 7.21877 13.6297 7.22346 13.6297 7.22816V7.23286C13.6297 7.77767 13.4419 8.3037 13.1131 8.7311C13.1084 8.73579 13.1084 8.73579 13.1037 8.74049C13.0286 8.83912 12.9393 8.92836 12.8501 9.0129C12.2301 8.81094 11.3753 8.77337 10.7742 9.07395C10.6849 9.10683 10.3421 9.32757 10.2669 9.32288C10.1448 9.31818 9.95694 9.11622 9.8724 9.04577C9.59999 8.81564 9.38395 8.51975 9.24304 8.19098C9.24304 8.18628 9.23835 8.18158 9.23835 8.18158C8.95655 7.51466 9.0223 6.65986 9.31819 6.11505C9.29471 6.17141 9.29941 6.16202 9.33698 6.09626C9.33698 6.09157 9.26653 6.22777 9.33698 6.09626ZM6.41095 4.64029C7.25166 4.64029 8.02191 5.11935 8.42113 5.87082C8.41643 5.88022 8.41643 5.88491 8.41173 5.89431C8.40704 5.9037 8.40234 5.91779 8.39764 5.92718C6.7585 6.08217 5.50449 7.54753 5.48101 9.17258C5.29314 9.09274 5.10997 8.97532 4.95498 8.83912C4.9362 8.82503 4.92211 8.81094 4.90332 8.79685C3.21252 7.52405 4.40547 4.64029 6.41095 4.64029ZM3.63991 8.67943C3.64461 8.68413 3.64461 8.68883 3.64931 8.69352C3.70567 8.79215 3.79021 8.94714 3.87475 9.03168C3.88884 9.05047 3.89823 9.06456 3.91232 9.08335C3.92171 9.09274 3.93111 9.10683 3.9405 9.11622C3.95459 9.13031 3.96398 9.1491 3.97807 9.16319C4.227 9.46378 4.55577 9.75027 4.91271 9.92405C5.10058 10.0227 5.48101 10.0696 5.62661 10.2012C5.7769 10.3327 5.87553 10.807 5.99295 10.9949C5.83326 11.0935 5.67827 11.2203 5.54676 11.3565C5.53737 11.3612 5.53267 11.3706 5.52328 11.3753C5.50919 11.3894 5.4998 11.3988 5.48571 11.4129C5.26966 11.6289 5.09119 11.8779 4.94089 12.1503C4.94089 12.155 4.9362 12.1597 4.9362 12.1597C4.88923 12.1972 4.86575 12.2442 4.86575 12.2959C4.85635 12.3194 4.84226 12.3428 4.83287 12.3663C4.83287 12.3663 4.83287 12.3663 4.83287 12.371C4.79999 12.4415 4.77181 12.5166 4.74363 12.5918C4.72015 12.6528 4.69197 12.7186 4.68258 12.7843C4.67788 12.8031 4.67318 12.8219 4.66849 12.8407C4.66379 12.8595 4.65909 12.8783 4.6544 12.897C4.6544 12.9017 4.6497 12.9111 4.6497 12.9158C4.645 12.9299 4.64031 12.944 4.64031 12.9581C4.64031 12.9628 4.64031 12.9628 4.64031 12.9675C4.61682 13.0708 4.60743 13.1788 4.57925 13.2822C4.57925 13.2869 4.57925 13.2869 4.57925 13.2869V13.2916C4.57925 13.2963 4.57925 13.301 4.57925 13.301V13.3104C4.55577 13.315 4.52759 13.3197 4.5041 13.3244C4.32563 13.3526 4.13306 13.3667 3.94989 13.3479H3.9452C3.92171 13.3479 3.90293 13.3432 3.87944 13.3432C3.87475 13.3432 3.87005 13.3432 3.86535 13.3432C3.67749 13.3197 3.48962 13.2728 3.31115 13.2023C3.22661 13.1695 3.14676 13.1319 3.06692 13.0896C3.02465 13.0614 2.98238 13.0379 2.94011 13.0192C2.91663 13.0051 2.89314 12.991 2.86966 12.9722C2.85087 12.9581 2.83209 12.9487 2.818 12.9346C2.818 12.9346 2.818 12.9346 2.8133 12.9346C2.76633 12.897 2.72406 12.8642 2.6771 12.8266C1.23991 11.6289 1.78473 9.08335 3.63991 8.67943C3.63052 8.66534 3.236 8.76867 3.17964 8.78276C3.33463 8.74049 3.48962 8.71231 3.63991 8.67943C3.64461 8.68413 2.60195 8.90487 3.63991 8.67943ZM2.36242 13.7518C2.52211 13.8599 2.83678 14.09 3.03404 14.09C3.31584 14.1933 3.63052 14.2638 3.93111 14.2779C4.0814 14.2873 4.25987 14.3013 4.41017 14.2685C4.52289 14.198 4.57925 14.1933 4.57925 14.2497C4.6544 14.7334 4.83757 15.3205 5.16633 15.6963C5.31193 15.8982 5.47631 16.0814 5.66418 16.2458L5.66888 16.2505C5.19921 16.5417 4.30684 17.3119 4.30684 17.9319C4.19882 17.9601 4.0814 17.9835 3.96868 17.9929C3.95929 17.9929 3.94989 17.9929 3.9405 17.9976C1.6861 18.2043 0.629346 15.1139 2.36242 13.7518C2.36712 13.7565 2.15107 13.9773 2.11819 13.9538C2.11819 13.9538 2.43287 13.7002 2.36242 13.7518C2.44226 13.8035 1.79882 14.198 2.36242 13.7518ZM3.19843 22.7178C2.01017 22.7178 1.09901 21.7738 0.958114 20.6231C0.89236 20.083 0.995687 19.5241 1.28218 19.0591C1.3996 18.8665 1.61565 18.5237 1.83639 18.4485C2.09471 18.3593 2.57377 18.6974 2.87905 18.8008C3.21721 18.8994 3.58825 18.9511 3.9405 18.9182C4.00156 18.9135 4.05792 18.9088 4.11897 18.9041C4.09549 19.3033 4.14715 19.7354 4.28336 20.1111C4.33502 20.2755 4.39608 20.454 4.48532 20.5996C4.60743 20.8391 4.76242 21.0927 4.95498 21.2853C5.18982 21.5577 5.218 21.5436 4.98316 21.8442C4.84696 22.018 4.69197 22.1683 4.51349 22.2951C4.12837 22.5722 3.66809 22.7178 3.19843 22.7178ZM9.5859 19.4677C9.5859 19.4724 9.5859 19.4724 9.5859 19.4677C9.29471 21.2477 7.10606 22.0556 5.78629 20.7968C5.19451 20.2286 4.84696 19.3925 5.06301 18.58C5.26966 17.8145 5.89901 16.9033 6.7585 16.7765C7.1859 16.6638 8.05009 16.6262 8.39764 16.9738C8.39764 16.9738 8.39764 16.9738 8.40234 16.9738C9.28531 17.4575 9.74089 18.5565 9.5906 19.4348C9.59529 19.3925 9.5953 19.4019 9.5859 19.4677C9.5859 19.4724 9.60469 19.3409 9.5859 19.4677ZM11.3331 19.416C11.0607 19.416 10.7882 19.3644 10.5346 19.2657C10.544 19.1389 10.5487 18.9933 10.5346 18.8665C10.5252 18.7303 10.5064 18.5941 10.483 18.4579C10.4783 18.4297 10.4736 18.4015 10.4642 18.3734C10.4642 18.3734 10.4642 18.3734 10.4642 18.3687C10.4595 18.3452 10.4548 18.317 10.4454 18.2935C10.4454 18.2888 10.4454 18.2888 10.4454 18.2888C10.328 17.8567 10.0931 17.1194 9.69392 16.8516C9.67514 16.8282 9.65635 16.8094 9.63757 16.7906C9.62817 16.7812 9.61878 16.7671 9.60939 16.7577C9.46849 16.6074 9.3088 16.4759 9.14441 16.3585C9.14441 16.3538 9.14911 16.3491 9.14911 16.3444C9.15381 16.3303 9.1585 16.3162 9.1632 16.3021C9.20547 16.1612 9.27122 16.0109 9.34637 15.8794C9.4497 15.6822 9.5859 15.499 9.74559 15.344C9.75968 15.3299 9.76907 15.3205 9.78316 15.3064C9.79725 15.2923 9.80665 15.283 9.82074 15.2736C9.83013 15.2642 9.83952 15.2548 9.85361 15.2454C9.85831 15.2407 9.86301 15.236 9.8724 15.2313C9.88179 15.2219 9.89588 15.2125 9.90528 15.2031C10.0039 15.1139 10.1213 15.0387 10.2387 14.973C10.746 15.2923 11.319 15.452 11.9201 15.452C11.9201 15.4567 11.9201 15.4661 11.9201 15.4708C11.892 15.9405 11.9577 16.4102 12.1174 16.8516C12.2066 17.0959 12.4509 17.744 12.7092 17.8755C12.7139 17.8849 12.7233 17.8943 12.7327 17.899C12.7468 17.9178 12.7609 17.9319 12.7749 17.946C12.8689 18.0493 12.9675 18.1479 13.0755 18.2372C13.2775 18.3076 13.2916 18.4015 13.1272 18.5237C13.0567 18.6974 12.7984 18.8712 12.6528 18.9792C12.263 19.261 11.8074 19.416 11.3331 19.416ZM15.1139 18.0775C13.6861 18.0775 12.6387 16.6826 12.8548 15.3111C13.2728 15.1796 13.8035 14.9354 14.0806 14.5831C14.1135 14.5503 14.1464 14.5221 14.1746 14.4892C14.1792 14.4845 14.1839 14.4798 14.1886 14.4751C14.2309 14.4329 14.2732 14.3859 14.3108 14.3389C14.3248 14.3248 14.3342 14.3107 14.3483 14.2967C14.353 14.292 14.3577 14.2873 14.3624 14.2779C14.4329 14.1933 14.5268 14.0806 14.5785 13.982C14.6959 13.7988 14.8039 13.6015 14.8791 13.3996C14.8837 13.3855 14.8884 13.3761 14.8931 13.362C16.2035 13.2352 17.3495 14.3436 17.3965 15.6305C17.4434 16.8939 16.4149 18.0775 15.1139 18.0775Z" fill="black"/>
<path d="M20.4446 6.74915C20.191 6.74915 19.9844 6.5425 19.9844 6.28888C19.9844 6.03527 20.191 5.82861 20.4446 5.82861C20.6983 5.82861 20.9049 6.03527 20.9049 6.28888C20.9049 6.5425 20.6983 6.74915 20.4446 6.74915Z" fill="black"/>
<path d="M23.8027 7.83875C23.3894 6.13856 22.1542 4.68729 20.1252 3.51782C20.4164 3.07633 21.9241 0.187874 20.8532 0.00939999C20.2004 -0.0986235 20.2051 1.03797 20.083 1.43719C19.8763 2.11821 19.571 2.77104 19.1296 3.33464C18.2748 4.45715 16.8517 5.0912 15.4568 5.0912C15.0622 5.06772 14.8227 5.56556 15.0857 5.86145C15.2689 6.06341 15.5789 6.02114 15.8278 6.00705C16.7296 5.95069 17.636 5.66419 18.4063 5.19453C17.5186 8.49159 19.7025 10.9573 22.3045 12.6247C22.3092 12.6294 22.3139 12.6294 22.3186 12.6341C22.3937 12.681 22.5018 12.7045 22.591 12.6951C22.5957 12.6951 22.6051 12.6951 22.6145 12.6904C22.6333 12.6904 22.6474 12.6857 22.6661 12.681C22.6943 12.6763 22.7225 12.6622 22.7507 12.6528C22.7554 12.6528 22.7554 12.6481 22.7601 12.6481C22.7648 12.6481 22.7648 12.6435 22.7695 12.6435C22.8352 12.6106 22.8916 12.5636 22.9339 12.5026C22.9339 12.5026 22.9386 12.4979 22.9386 12.4932C22.9902 12.4086 24.4086 10.3327 23.8027 7.83875C23.3894 6.13856 24.4086 10.3327 23.8027 7.83875ZM22.6521 11.0043C22.4078 10.22 22.1589 9.43562 21.8912 8.65598C21.7644 8.28024 21.6047 7.36439 21.1115 7.30803C20.3084 7.21879 20.7452 8.17691 20.8767 8.54325C21.1773 9.37926 21.4403 10.2341 21.708 11.0795C20.6701 10.2763 19.6791 9.26654 19.2845 7.98435C18.8994 6.74443 19.2094 5.49511 19.6744 4.32564C22.1166 5.73464 23.7652 8.13934 22.6521 11.0043C22.2669 9.77848 22.6521 11.0043 22.6521 11.0043Z" fill="black"/>
</svg>

<svg width="24" height="24" fill="none" xmlns="http://www.w3.org/2000/svg"><path d="M16.443 12.714c2.16-1.489 1.653-5.2-.935-5.913-.183-.052-.91-.024-1-.108-.146-.141-.235-.813-.347-1.02a3.256 3.256 0 00-1.447-1.366c-1.268-.61-2.8-.348-3.743.709-.912-1.23-2.499-1.606-3.87-.944A3.412 3.412 0 003.626 5.42c-.174.3-.3.625-.371.967-.08.41.023.785-.01 1.184-.023.277.043.22-.258.333a3.447 3.447 0 00-.493.24 3.204 3.204 0 00-.892.813 3.487 3.487 0 00-.681 2.179 3.285 3.285 0 00.47 1.597c.046.075.154.188.178.263.07.216.07.042-.033.249-.197.385-.56.662-.733 1.085a3.416 3.416 0 00.005 2.62c.08.193.211.357.296.545.07.155.127.141.089.272-.019.062-.282.254-.32.296A3.43 3.43 0 000 20.374c.014 1.818 1.508 3.34 3.349 3.245a3.256 3.256 0 002.193-1.014c.085-.09.315-.526.413-.559.08-.023.489.188.573.212.432.112.888.126 1.33.047a3.266 3.266 0 002.061-1.292c.137-.183.212-.413.343-.592.033-.042.057-.22.099-.244.019-.01.305.084.366.094.48.094.982.07 1.456-.061a3.32 3.32 0 001.343-.756c.104-.099.418-.606.531-.649.127-.042.554.146.705.165.995.108 2.005-.287 2.69-1.01 1.48-1.578.968-4.32-1.009-5.246.127-.09.254-.174.38-.263-.126.09-.253.174-.38.263zm-2.64-3.363a2.32 2.32 0 00.315-.456c.028-.046.052-.093.075-.145.113-.23.207-.465.263-.714.08-.343.01-.39.348-.423.324-.028.714.132.982.291.54.325.892.888 1.033 1.494a2.62 2.62 0 01-.207 1.78c-.15.291-.366.545-.63.737-.088.066-.873.442-.873.357v-.047a2.47 2.47 0 00-.01-.333c0-.019-.004-.033-.004-.052v-.01a3.31 3.31 0 00-1.38-2.39c.032-.023.06-.056.088-.089.015-.014-.028.033 0 0 .118-.136-.028.033 0 0zm-.065 1.395c.01.01.014.019.019.028.117.165.206.343.281.526.01.024.014.042.024.066.005.01.005.019.01.028l.013.042c.052.15.075.31.099.465 0 .024.005.043.005.066 0 .01 0 .024.004.033 0 .024.005.042.005.066v.014c.01.202.005.441-.061.634-.005.019-.005.037-.01.051-.333.808-.85 1.527-1.756 1.72-.564.122-1.245.018-1.714-.334-.038-.023-.075-.052-.108-.075-.963-.733-1.142-2.053-.569-3.086.592-1.07 1.672-1.385 2.79-1.01.024.01.047.024.07.033.024.01.048.024.071.033.005 0 .01.005.014.005.066.033.132.07.193.113.056.037.112.075.169.117.051.038.098.08.145.127.01.01.02.014.024.023.066.052.258.287.282.315.005.01-.028-.038 0 0zm-4.922.507a3.78 3.78 0 00-.07.315c-.668.019-1.255-.277-1.715-.742a2.404 2.404 0 01-.573-1.118c-.437-1.146.625-2.536 1.69-2.804A3.36 3.36 0 009.53 9.952a3.357 3.357 0 00-.714 1.306l.056-.202-.056.197c-.029.104.136-.483 0 0zm.68 3.09c-.53.376-1.01.959-1.192 1.593a2.039 2.039 0 01-.226-.066 2.255 2.255 0 00-.662-.09c-.09 0-.178 0-.268.006-.07.014-.136.018-.206.018a.923.923 0 00-.165.024h-.01a.188.188 0 01-.07.014c-.765-.418-1.272-1.282-1.23-2.16v-.005c0-.024 0-.047.005-.07v-.01c0-.019.004-.038.004-.052v-.005c.005-.065.01-.154.028-.22.015-.09.038-.179.062-.263 0-.005 0-.005.004-.01 0-.004.005-.01.005-.014.047-.16.117-.3.188-.45.037-.066.075-.132.122-.198a2.09 2.09 0 01.455-.498.638.638 0 01.17-.127.319.319 0 01.056-.037.19.19 0 01.042-.024 3.137 3.137 0 002.086.794h.014c.014.179.033.437.117.601.01.033.019.066.033.104 0 .004.005.004.005.009.009.033.023.066.032.103.132.376.339.728.602 1.034zm-.159-8.247c0-.004.005-.01.005-.014v-.005c1.117-2.047 4.26-1.131 4.288 1.137v.019c0 .545-.188 1.07-.517 1.498l-.01.01a2.322 2.322 0 01-.253.272c-.62-.202-1.475-.24-2.076.061-.09.033-.432.254-.507.249-.122-.005-.31-.207-.395-.277a2.316 2.316 0 01-.629-.855c0-.005-.005-.01-.005-.01-.281-.666-.216-1.521.08-2.066-.023.056-.019.047.019-.019 0-.004-.07.132 0 0zM6.411 4.64c.84 0 1.61.48 2.01 1.23-.005.01-.005.015-.01.024l-.013.033c-1.64.155-2.894 1.62-2.917 3.246a1.995 1.995 0 01-.526-.334c-.019-.014-.033-.028-.052-.042-1.69-1.273-.498-4.157 1.508-4.157zM3.64 8.68c.005.004.005.009.01.014.056.098.14.253.225.338l.037.051.029.033c.014.014.023.033.037.047.249.3.578.587.935.761.188.099.568.146.714.277.15.132.249.606.366.794a2.35 2.35 0 00-.446.362c-.01.004-.014.014-.024.018l-.037.038a3.26 3.26 0 00-.55.747.171.171 0 00-.07.136c-.01.023-.024.047-.033.07v.005a3.09 3.09 0 00-.09.22c-.023.062-.051.128-.06.193l-.015.057-.014.056c0 .005-.004.014-.004.019a.137.137 0 00-.01.042v.01c-.023.103-.033.21-.06.314v.029l-.076.013a2.184 2.184 0 01-.554.024h-.005c-.023 0-.042-.005-.066-.005h-.014a2.286 2.286 0 01-.798-.253.845.845 0 00-.127-.07c-.023-.015-.047-.029-.07-.048-.02-.014-.038-.023-.052-.037h-.005l-.136-.108c-1.437-1.198-.892-3.744.963-4.148-.01-.014-.404.09-.46.104.155-.043.31-.07.46-.104.005.005-1.038.226 0 0zm-1.278 5.072c.16.108.475.338.672.338a3.1 3.1 0 00.897.188c.15.01.329.023.48-.01.112-.07.168-.075.168-.018.075.483.259 1.07.587 1.446.146.202.31.385.498.55l.005.005c-.47.29-1.362 1.06-1.362 1.68a2.04 2.04 0 01-.338.062c-.01 0-.02 0-.028.005-2.255.206-3.312-2.884-1.579-4.246.005.005-.21.225-.244.202 0 0 .315-.254.244-.202.08.051-.563.446 0 0zm.836 8.966c-1.188 0-2.099-.944-2.24-2.095a2.429 2.429 0 01.324-1.564c.118-.193.334-.535.554-.61.259-.09.738.248 1.043.352a2.9 2.9 0 001.062.117l.178-.014c-.024.4.028.831.164 1.207.052.165.113.343.202.489a2.7 2.7 0 00.47.685c.235.273.263.259.028.56a2.25 2.25 0 01-1.785.874zm6.388-3.25c0 .004 0 .004 0 0-.291 1.78-2.48 2.588-3.8 1.329-.591-.568-.939-1.405-.723-2.217.207-.765.836-1.677 1.696-1.803.427-.113 1.291-.15 1.639.197h.004c.883.483 1.339 1.582 1.189 2.46.004-.042.004-.032-.005.034 0 .004.019-.127 0 0zm1.747-.052a2.21 2.21 0 01-.798-.15 2.323 2.323 0 000-.4 4.073 4.073 0 00-.052-.408.543.543 0 00-.019-.085v-.004c-.005-.024-.01-.052-.019-.075v-.005c-.117-.432-.352-1.17-.751-1.437-.019-.024-.038-.043-.056-.061l-.029-.033a3.1 3.1 0 00-.465-.4c0-.004.005-.009.005-.014l.014-.042c.042-.14.108-.291.183-.423.104-.197.24-.38.4-.535l.037-.038a.234.234 0 01.038-.032c.01-.01.019-.02.033-.029a.075.075 0 01.018-.014c.01-.01.024-.018.033-.028a1.8 1.8 0 01.334-.23c.507.32 1.08.479 1.681.479v.019c-.028.47.038.94.197 1.38.09.245.334.893.592 1.024a.05.05 0 00.024.024 2.953 2.953 0 00.343.338c.201.07.216.164.051.287-.07.173-.329.347-.474.455-.39.282-.846.437-1.32.437zm3.78-1.338c-1.427 0-2.474-1.395-2.258-2.767.418-.131.948-.376 1.226-.728.033-.033.065-.06.094-.094l.014-.014a1.97 1.97 0 00.122-.136c.014-.014.023-.028.037-.042a.054.054 0 00.014-.02c.07-.084.165-.196.216-.295.118-.183.226-.38.301-.582.005-.014.01-.024.014-.038 1.31-.127 2.456.982 2.503 2.268.047 1.264-.981 2.447-2.282 2.447zM20.445 6.75a.461.461 0 11.001-.923.461.461 0 01-.001.922z" fill="#000"/><path d="M23.803 7.839c-.414-1.7-1.649-3.152-3.678-4.321.291-.442 1.8-3.33.728-3.509-.653-.108-.648 1.029-.77 1.428-.207.681-.512 1.334-.953 1.898-.855 1.122-2.278 1.756-3.673 1.756-.395-.023-.634.475-.371.77.183.202.493.16.742.146a5.699 5.699 0 002.578-.812c-.887 3.297 1.297 5.762 3.899 7.43.004.004.009.004.014.01.075.046.183.07.272.06.005 0 .014 0 .023-.005.02 0 .033-.004.052-.009.028-.005.056-.019.085-.028.004 0 .004-.005.01-.005.004 0 .004-.005.009-.005a.434.434 0 00.164-.14s.005-.005.005-.01c.051-.084 1.47-2.16.864-4.654-.414-1.7.606 2.494 0 0zm-1.15 3.165a85.72 85.72 0 00-.762-2.348c-.127-.376-.286-1.292-.78-1.348-.803-.09-.366.869-.234 1.235.3.836.563 1.691.831 2.537-1.038-.804-2.029-1.813-2.423-3.096-.386-1.24-.076-2.489.39-3.658 2.442 1.409 4.09 3.813 2.977 6.678-.385-1.226 0 0 0 0z" fill="#000"/></svg>
